X:1918
T:Bourrée droite
C:Dour, Tablatures
M:3/8
L:1/16
K:G
Bc|d2B2c2|d4AB|c2dcBA|B2G2Bc|\
dGBGcG|d2~B2AB|ccdABA|G4:|
|:G2|ABA2G2|fFeFd2|GFG2A2|B2G2G2|\
ABA2G2|fFeFd2|c2B2A2|G4:|


